X: 76
T: Iste confessor
N: Derived from Mar2054-Iste_confessor.krn
C: Johannes Martini
%%abc-version 2.0
%%abcx-abcm2ps-target-version 5.9.1 (29 Sep 2008)
%%abc-creator hum2abc beta
%%abcx-conversion-date 2019/02/17 07:19:42
%%abc-edited-by Jesse Rodin
%%abc-edited-by Chris Gage 08-19-2014
%%abcx-initial-encoding-date 2014/10/05/
%%humdrum-veritas 2061449027
%%humdrum-veritas-data 2125006595
%%linebreak <none>
%%barnumbers 0
L: 1/4
M: 3/1
Q: 1/2=120
V: 1 clef=treble
V: 2 clef=treble-8
V: 3 clef=bass
K: C
[V:1] z12 | 
[V:2] z12 | 
[V:3] G,4A,4G,2E,2- | 
[V:1] G4A4G2E2- | 
[V:2] z12 | 
[V:3] E,F,G,4^F,2G,4 | 
[V:1] EFG4^F2G4 | 
[V:2] z4d4e4 | 
[V:3] G,4D,4z4 | 
[V:1] F2D3EFGA2c2 | 
[V:2] d2B3cd4c2 | 
[V:3] z4z4A,4 | 
[V:1] B2d4c2B2G2- | 
[V:2] d2B2c3BG3F | 
[V:3] G,4A,4B,4 | 
[V:1] G2A3GG4^F2 | 
[V:2] EDF4G2D4 | 
[V:3] C6B,2A,4 | 
[V:1] G8z4 | 
[V:2] z2d2e2d2g3f | 
[V:3] G,12 | 
[V:1] c4A4c2BA | 
[V:2] edc3BA3Bcd | 
[V:3] z12 | 
[V:1] G4A2c3Bd2- | 
[V:2] e4f2e4d2 | 
[V:3] C4A,4C2B,A, | 
[V:1] dcB4A4^G2 | 
[V:2] g4f2e4d2 | 
[V:3] G,4A,2C2B,4 | 
[V:1] A2z2A4G2E2 | 
[V:2] e4f4e2c2- | 
[V:3] A,4z4z2A,2- | 
[V:1] F2G4A2G2B2 | 
[V:2] c2d2e2d4g2 | 
[V:3] A,2G,2E,2F,2G,4 | 
[V:1] c2d4c2B2AG | 
[V:2] e2g3fedg2ed | 
[V:3] A,2G,2B,2C2D2CB, | 
[V:1] ^F3EG4z4 | 
[V:2] c3Bd4B2cd | 
[V:3] A,4G,8 | 
[V:1] G4E2G3FED | 
[V:2] e2dcB4G3A | 
[V:3] z4G,4E,3F, | 
[V:1] E2DCB,2C4B,2 | 
[V:2] B3AB2G2A2F2 | 
[V:3] G,3F,G,2E,2D,4 | 
[V:1] C8z4 | 
[V:2] G4A4G2B2- | 
[V:3] C,4z4G,3F, | 
[V:1] z4z2G3FG2 | 
[V:2] B2c2d2e4d2 | 
[V:3] G,2A,2F,2G,2C2B,2 | 
[V:1] A2F2G2c2B2A2- | 
[V:2] e2c2B2A2B2c2- | 
[V:3] A,4G,2A,2G,2F,2- | 
[V:1] A2G4^F2B2A2 | 
[V:2] cBAGA4z2d2- | 
[V:3] F,2G,2D,4G,2F,2 | 
[V:1] B2c3BAGA2G2- | 
[V:2] d2cBA3GF2E2 | 
[V:3] G,2A,3B,C3B,A,G, | 
[V:1] G2^F2G8 |]  
[V:2] D4d8 |]  
[V:3] A,4G,8 |]  



